X:27
T:New Irish Barn Dance
T:Balen i Karlstad
T:Te dans m\"a Karlstat\"osera
R:barndance
C:Erik Uppstr\"om (1881-1968), Stockholm, Sweden
D:De Dannan
D:Flanagan Brothers
Z:id:hn-barndance-27
M:C|
L:1/8
K:D
fe | d2dB A2AF | GFGA B2BG | A^GAc e2eg | fgfe defe |
dedB A2AF | GFGA B2BG | A2cB AGFE | D2FE D2 :|
K:A
|: (3Bcd | e2e2 e3d | c2Ac e2e2 | B2^AB e2e2 | c2Ac e2 (3Bcd |
e2e2 e3d | c2Ac e3d | e2gf edcB | A2c2 A2 :|
K:D
|: fe | d2dB A2AF | GFGA B2BG | A^GAc e2eg | fgfe defe |
dedB A2AF | GFGA B2BG | A2cB AGFE | D2FE D2 :|
K:G
|: (3DEF | G6 e2 | d6 B2 | cBcB c2A2 | BABA B2D2 |
G6 e2 | c6 e2 | d2fe dcBA | G2B2 G2 :|
|: g2 | g2ec G2e2 | d2BG D2D2 | DEFG AcBA | GABc d2g2 |
g2ec G2e2 | d2BG D2D2 | DEFG AcBA | G2B2 G2 :|
K:D
|: fe | d2dB A2AF | GFGA B2BG | A^GAc e2eg | fgfe defe |
dedB A2AF | GFGA B2BG | A2cB AGFE | D2FE D2 :|

